humanity-icon-theme/Humanity/actions/48/document-properties.svg

<?xml version="1.0" encoding="UTF-8" standalone="no"?>
<!-- Created with Inkscape (http://www.inkscape.org/) -->

<svg
   xmlns:svg="http://www.w3.org/2000/svg"
   xmlns="http://www.w3.org/2000/svg"
   xmlns:xlink="http://www.w3.org/1999/xlink"
   version="1.0"
   width="48"
   height="48"
   id="svg2527">
  <defs
     id="defs2529">
    <linearGradient
       id="linearGradient8838">
      <stop
         id="stop8840"
         style="stop-color:black;stop-opacity:1"
         offset="0" />
      <stop
         id="stop8842"
         style="stop-color:black;stop-opacity:0"
         offset="1" />
    </linearGradient>
    <radialGradient
       cx="62.625"
       cy="4.625"
       r="10.625"
       fx="62.625"
       fy="4.625"
       id="radialGradient2436"
       xlink:href="#linearGradient8838"
       gradientUnits="userSpaceOnUse"
       gradientTransform="matrix(2.1647059,0,0,0.7529402,-111.56471,36.517647)" />
    <linearGradient
       id="linearGradient3397">
      <stop
         id="stop3399"
         style="stop-color:#aaa;stop-opacity:1"
         offset="0" />
      <stop
         id="stop3401"
         style="stop-color:#8c8c8c;stop-opacity:1"
         offset="1" />
    </linearGradient>
    <linearGradient
       x1="37.201294"
       y1="1"
       x2="37.201294"
       y2="45"
       id="linearGradient2517"
       xlink:href="#linearGradient3397"
       gradientUnits="userSpaceOnUse" />
    <linearGradient
       x1="63.9995"
       y1="3.1001"
       x2="63.9995"
       y2="122.8994"
       id="linearGradient3309"
       gradientUnits="userSpaceOnUse">
      <stop
         id="stop3311"
         style="stop-color:#f6f6f6;stop-opacity:1"
         offset="0" />
      <stop
         id="stop3313"
         style="stop-color:#d2d2d2;stop-opacity:1"
         offset="1" />
    </linearGradient>
    <linearGradient
       x1="20.758585"
       y1="1"
       x2="20.758585"
       y2="45.017357"
       id="linearGradient2515"
       xlink:href="#linearGradient3309"
       gradientUnits="userSpaceOnUse" />
    <linearGradient
       id="linearGradient5128">
      <stop
         id="stop5130"
         style="stop-color:#e5e5e5;stop-opacity:1"
         offset="0" />
      <stop
         id="stop5132"
         style="stop-color:#ababab;stop-opacity:1"
         offset="1" />
    </linearGradient>
    <linearGradient
       x1="86.132919"
       y1="105.105"
       x2="84.63858"
       y2="20.895"
       id="linearGradient2512"
       xlink:href="#linearGradient5128"
       gradientUnits="userSpaceOnUse"
       gradientTransform="matrix(0.3244803,0,0,0.3244803,3.2332655,2.5577454)" />
  </defs>
  <g
     id="layer1">
    <path
       d="m 46.999997,40 c 0,4.418278 -10.297452,8 -23,8 -12.702548,0 -23.0000002,-3.581722 -23.0000002,-8 0,-4.418278 10.2974522,-8 23.0000002,-8 12.702548,0 23,3.581722 23,8 l 0,0 z"
       id="path8836"
       style="opacity:0.3;fill:url(#radialGradient2436);fill-opacity:1;fill-rule:evenodd;stroke:none;stroke-width:0.99999988;marker:none;visibility:visible;display:inline;overflow:visible" />
    <path
       d="M 21.03125,1.5 C 20.18512,1.5 19.5,2.2019069 19.5,3.0625 l 0,3.03125 C 17.987058,6.4968555 16.541437,7.105736 15.21875,7.875 L 13.0625,5.71875 C 12.758234,5.4144843 12.393747,5.2533367 12,5.25 11.606253,5.2466633 11.205402,5.3883479 10.90625,5.6875 L 6.6875,9.90625 C 6.0891956,10.504554 6.1102186,11.453968 6.71875,12.0625 L 8.875,14.21875 C 8.105736,15.541437 7.4968555,16.987058 7.09375,18.5 l -3.03125,0 C 3.2019067,18.5 2.5,19.185119 2.5,20.03125 l 0,5.9375 C 2.5,26.81488 3.201907,27.5 4.0625,27.5 l 3.03125,0 c 0.4031055,1.512942 1.011986,2.958563 1.78125,4.28125 L 6.71875,33.9375 C 6.1102187,34.546031 6.0891959,35.495445 6.6875,36.09375 l 4.21875,4.21875 c 0.598304,0.598304 1.547718,0.577279 2.15625,-0.03125 L 15.21875,38.125 c 1.322687,0.769264 2.768308,1.378144 4.28125,1.78125 l 0,3.03125 c 0,0.860593 0.685119,1.5625 1.53125,1.5625 l 5.9375,0 C 27.81488,44.5 28.5,43.798093 28.5,42.9375 l 0,-3.03125 c 1.512942,-0.403106 2.958563,-1.011986 4.28125,-1.78125 l 2.15625,2.15625 c 0.608531,0.608531 1.557946,0.629555 2.15625,0.03125 l 4.21875,-4.21875 c 0.598304,-0.598304 0.577281,-1.547719 -0.03125,-2.15625 L 39.125,31.78125 C 39.894264,30.458563 40.503144,29.012942 40.90625,27.5 l 3.03125,0 c 0.860593,0 1.5625,-0.685119 1.5625,-1.53125 l 0,-5.9375 C 45.5,19.18512 44.798093,18.5 43.9375,18.5 l -3.03125,0 C 40.503144,16.987058 39.894264,15.541437 39.125,14.21875 l 2.15625,-2.15625 c 0.608531,-0.608531 0.629555,-1.557946 0.03125,-2.15625 L 37.09375,5.6875 C 36.495446,5.0891956 35.54603,5.1102187 34.9375,5.71875 L 32.78125,7.875 C 31.458563,7.105736 30.012942,6.4968555 28.5,6.09375 l 0,-3.03125 C 28.5,2.2019067 27.814881,1.5 26.96875,1.5 l -5.9375,0 z M 24,16.5 c 3.588,0 6.5,2.912 6.5,6.5 0,3.588 -2.912,6.5 -6.5,6.5 -3.588,0 -6.5,-2.912 -6.5,-6.5 0,-3.588 2.912,-6.5 6.5,-6.5 z"
       id="rect3267"
       style="fill:url(#linearGradient2515);fill-opacity:1;fill-rule:nonzero;stroke:url(#linearGradient2517);stroke-width:1;stroke-linecap:butt;stroke-linejoin:round;stroke-miterlimit:4;stroke-opacity:1;stroke-dasharray:none;stroke-dashoffset:0;marker:none;visibility:visible;display:block;overflow:visible;enable-background:accumulate" />
    <path
       d="m 24,9.5 c -7.443901,0 -13.5,6.056099 -13.5,13.5 0,7.4439 6.056099,13.5 13.5,13.5 7.443901,0 13.5,-6.0561 13.5,-13.5 C 37.5,15.556099 31.443901,9.5 24,9.5 z"
       id="path28"
       style="fill:none;stroke:url(#linearGradient2512);stroke-width:1;stroke-miterlimit:4;stroke-dasharray:none" />
    <path
       d="m 24,10 c -7.168321,-5e-7 -13,5.83168 -13,13 0,7.16832 5.831679,13 13,13 7.168319,-10e-7 13,-5.83168 13,-13 0,-7.16832 -5.831681,-13 -13,-13 z m 0,6 c 3.864,0 7,3.136 7,7 0,3.864 -3.136,7 -7,7 -3.864,0 -7,-3.136 -7,-7 0,-3.864 3.136,-7 7,-7 z"
       id="path3315"
       style="opacity:0.05;fill:black;fill-opacity:1;stroke:none" />
  </g>
</svg>

<?xml version="1.0" encoding="UTF-8" standalone="no"?>
<!-- Created with Inkscape (http://www.inkscape.org/) -->
<svg id="svg2527" xmlns="http://www.w3.org/2000/svg" height="48" width="48" version="1.0" xmlns:xlink="http://www.w3.org/1999/xlink">
 <defs id="defs2529">
  <radialGradient id="radialGradient2436" gradientUnits="userSpaceOnUse" cy="4.625" cx="62.625" gradientTransform="matrix(2.1647 0 0 .75294 -111.56 36.518)" r="10.625">
   <stop id="stop8840" offset="0"/>
   <stop id="stop8842" style="stop-opacity:0" offset="1"/>
  </radialGradient>
  <linearGradient id="linearGradient2517" y2="45" gradientUnits="userSpaceOnUse" x2="37.201" y1="1" x1="37.201">
   <stop id="stop3399" style="stop-color:#aaa" offset="0"/>
   <stop id="stop3401" style="stop-color:#8c8c8c" offset="1"/>
  </linearGradient>
  <linearGradient id="linearGradient2515" y2="45.017" gradientUnits="userSpaceOnUse" x2="20.759" y1="1" x1="20.759">
   <stop id="stop3311" style="stop-color:#f6f6f6" offset="0"/>
   <stop id="stop3313" style="stop-color:#d2d2d2" offset="1"/>
  </linearGradient>
  <linearGradient id="linearGradient2512" y2="20.895" gradientUnits="userSpaceOnUse" x2="84.639" gradientTransform="matrix(.32448 0 0 .32448 3.2333 2.5577)" y1="105.1" x1="86.133">
   <stop id="stop5130" style="stop-color:#e5e5e5" offset="0"/>
   <stop id="stop5132" style="stop-color:#ababab" offset="1"/>
  </linearGradient>
 </defs>
 <g id="layer1">
  <path id="path8836" style="opacity:.3;fill-rule:evenodd;fill:url(#radialGradient2436)" d="m47 40c0 4.4183-10.297 8-23 8s-23-3.5817-23-8 10.297-8 23-8 23 3.5817 23 8z"/>
  <path id="rect3267" style="stroke-linejoin:round;stroke:url(#linearGradient2517);display:block;fill:url(#linearGradient2515)" d="m21.031 1.5c-0.846 0-1.531 0.7019-1.531 1.5625v3.0312c-1.513 0.4032-2.959 1.012-4.281 1.7813l-2.157-2.1562c-0.304-0.3043-0.668-0.4655-1.062-0.4688s-0.795 0.1383-1.094 0.4375l-4.2185 4.2187c-0.5983 0.5988-0.5773 1.5478 0.0313 2.1558l2.1562 2.157c-0.7693 1.322-1.3781 2.768-1.7812 4.281h-3.0312c-0.8607 0-1.5626 0.685-1.5626 1.531v5.9375c0 0.847 0.7019 1.532 1.5625 1.532h3.0312c0.40311 1.5129 1.012 2.9586 1.7812 4.2812l-2.1561 2.157c-0.6086 0.608-0.6296 1.557-0.0313 2.156l4.2188 4.2188c0.5983 0.5983 1.5477 0.57728 2.1562-0.03125l2.157-2.157c1.3227 0.76926 2.7683 1.3781 4.2812 1.7812v3.0312c0 0.86059 0.68512 1.5625 1.5312 1.5625h5.9375c0.847 0 1.532-0.702 1.532-1.562v-3.0312c1.5129-0.40311 2.9586-1.012 4.2812-1.7812l2.1562 2.1562c0.60853 0.60853 1.5579 0.62956 2.1562 0.03125l4.2188-4.2188c0.5983-0.5983 0.57728-1.5477-0.03125-2.1562l-2.156-2.157c0.769-1.322 1.378-2.768 1.781-4.281h3.0312c0.86059 0 1.5625-0.68512 1.5625-1.5312v-5.9375c0-0.847-0.702-1.532-1.562-1.532h-3.0312c-0.404-1.513-1.013-2.959-1.782-4.281l2.1562-2.1562c0.60853-0.60853 0.62956-1.5579 0.03125-2.1562l-4.218-4.2193c-0.599-0.5983-1.548-0.5773-2.156 0.0313l-2.157 2.1562c-1.322-0.7693-2.768-1.3781-4.281-1.7812v-3.0312c0-0.8607-0.685-1.5626-1.531-1.5626h-5.9375zm2.969 15c3.588 0 6.5 2.912 6.5 6.5s-2.912 6.5-6.5 6.5-6.5-2.912-6.5-6.5 2.912-6.5 6.5-6.5z"/>
  <path id="path28" style="stroke:url(#linearGradient2512);fill:none" d="m24 9.5c-7.4439 0-13.5 6.0561-13.5 13.5s6.0561 13.5 13.5 13.5 13.5-6.0561 13.5-13.5c0-7.444-6.056-13.5-13.5-13.5z"/>
  <path id="path3315" style="opacity:.05" d="m24 10c-7.1683-5e-7 -13 5.8317-13 13s5.8317 13 13 13c7.1683-0.000001 13-5.8317 13-13s-5.8317-13-13-13zm0 6c3.864 0 7 3.136 7 7s-3.136 7-7 7-7-3.136-7-7 3.136-7 7-7z"/>
 </g>
</svg>
